X: 1
T: String Quartet in G Minor opus 20 no 3 mvt 4
C: Franz Joseph Haydn
%%abc-version 2.0
%%abcx-abcm2ps-target-version 5.9.1 (29 Sep 2008)
%%abc-creator hum2abc beta
%%abcx-conversion-date 2021/02/14 14:38:20
%%abc-copyright Copyright (c) 1994, 2000 Center for Computer Assisted Research in the Humanities
%%abc-edited-by Frances Bennion
%%abcx-initial-encoding-date 1997/04/15
%%gracespace 0 6 6
%%humdrum-veritas 3209220739
%%humdrum-veritas-data 515734355
%%linebreak <none>
%%barnumbers 0
L: 1/8
M: 4/4
N: Derived from op20n3-04.krn
Q: "Allegro di molto"
%%staves [1 2 3 4]
V: 1
V: 2
V: 3 clef=alto
V: 4 clef=bass
K: Bb
[V:1]z7 z [I:setbarnb1]|
[V:2]z7 D |
[V:3]z7 z |
[V:4]z7 z |
[V:1]z4 zA Ad |
[V:2]B2 AG ^F4 |
[V:3]z4 D4 |
[V:4]zG, A,B, C4 |
[V:1]d/^c/d/c/ dG ^FG AB |
[V:2]G2 z6 |
[V:3]G,2 >D2 CB, A,G, |
[V:4]B,2 >B,2 A,G, ^F,=E, |
[V:1]dc aG ^FG AB |
[V:2]z8 |
[V:3]^F,2 z6 |
[V:4]D,2 z6 |
[V:1]dc c'2 z4 |
[V:2]z2 a2 z3 D |
[V:3]z8 |
[V:4]z8 |
[V:1]z4 zA Ad |
[V:2]B2 AG ^F4 |
[V:3]z4 D4- |
[V:4]zG, A,B, C4 |
[V:1]d/^c/d/c/ d2 zA Ad |
[V:2]G4 ^F4 |
[V:3]D2 >G,2 D4- |
[V:4]B,4 C4 |
[V:1]d/^c/d/c/ dg g/^f/g/f/ gb |
[V:2]G2 z6 |
[V:3]D2 z6 |
[V:4]B,2 z6 |
[V:1]b2 ^c2 a2 z=c |
[V:2]z2 B2 c2 z2 |
[V:3]z2 E2 D2 z2 |
[V:4]z2 G,2 ^F,2 z2 |
[V:1]B/A/B/A/ Be _A/G/A/G/ Ac |
[V:2]D2 z2 E2 z2 |
[V:3]D2 z2 _A,2 z2 |
[V:4]G,2 z2 C,2 z2 |
[V:1]D/^C/D/C/ D^F G,2 zD |
[V:2]D/^C/D/C/ D^F G,2 z2 |
[V:3]D/^C/D/C/ D^F G,2 z2 |
[V:4]D,/^C,/D,/C,/ D,^F, G,,2 z2 |
[V:1]B2 AG ^F4 |
[V:2]z4 zA Ad |
[V:3]z4 D4- |
[V:4]zG, A,B, C4 |
[V:1]G2 z4 zB |
[V:2]d/^c/d/c/ d2 z3 B |
[V:3]D2 z4 zB |
[V:4]B,2 z4 zB, |
[V:1]e2 BG E2 _D2 |
[V:2]e2 BG E2 _D2 |
[V:3]e2 BG E2 _D2 |
[V:4]E2 B,G, E,2 _D,2 |
[V:1]C2 B,2 A,2 _G2 |
[V:2]C2 B,2 A,2 _G2 |
[V:3]C2 B,2 A,2 E2 |
[V:4]C,2 B,,2 A,,4 |
[V:1]e4 d4 |
[V:2]F/=E/F/E/ Fz F/E/F/E/ Fz |
[V:3]c4 B4 |
[V:4]A,A, A,A, B,B, B,B, |
[V:1]a4 b4 |
[V:2]F/=E/F/E/ Fz F/E/F/E/ Fz |
[V:3]c4 B4 |
[V:4]E,E, E,E, D,D, D,D, |
[V:1]=E4 F2 z2 |
[V:2]B/A/B/A/ B/d/c/B/ A2 z2 |
[V:3]G2 C2 C2 z2 |
[V:4]G,G, G,G, F,2 zF, |
[V:1]z4 zc cf |
[V:2]zB, CD E4 |
[V:3]z4 F4- |
[V:4]D2 CB, A,4 |
[V:1]f/=e/f/e/ f2 zc cf |
[V:2]D4 E4 |
[V:3]F2 >B2 F4- |
[V:4]B,4 A,4 |
[V:1]f/=e/f/e/ f2 zf fa |
[V:2]D4 E4 |
[V:3]F2 >B2 A3 F |
[V:4]B,4 C4 |
[V:1]b/a/b/a/ bd' g/^f/g/f/ gb |
[V:2]F2 z2 B2 z2 |
[V:3]B,2 z2 B,2 z2 |
[V:4]D2 z2 E2 z2 |
[V:1]c/=B/c/B/ c/e/E/e/ Eg gg |
[V:2]G2 z6 |
[V:3]E2 z6 |
[V:4]E,2 z6 |
[V:1]c/=B/c/B/ c/e/E/e/ Eb bb |
[V:2]G2 z6 |
[V:3]C2 z6 |
[V:4]E,2 z6 |
[V:1]G,4- [G,E]_D CB, |
[V:2]_D6 B,2 |
[V:3]B,8 |
[V:4]G,8 |
[V:1][A,F]G AB cd ef |
[V:2]C2 z6 |
[V:3]F,2 z6 |
[V:4]F,2 z6 |
[V:1]ga bc' d'e' c'a |
[V:2]z6 Ac |
[V:3]z6 F2 |
[V:4]z6 E,2 |
[V:1]bd' f_a ^fg =ab |
[V:2]B2 z2 B2 z2 |
[V:3]F2 z2 E2 z2 |
[V:4]D,2 z2 E,2 z2 |
[V:1]=Bc de Ff ec |
[V:2]z4 zd cA |
[V:3]z7 F, |
[V:4]z7 F, |
[V:1]B2 zF g2 fe |
[V:2]B2 zF e2 dc |
[V:3]F2 ED C2 zF, |
[V:4]D2 CB, A,2 zF, |
[V:1]d2 zF g2 fe |
[V:2]B2 zF e2 dc |
[V:3]F2 ED C2 zF, |
[V:4]D2 CB, A,2 zF, |
[V:1]d/e/f/g/ a/b/c'/d'/ e'4- |
[V:2]B/c/d/e/ f/g/a/b/ c'4 |
[V:3]D2 CB, A,/B,/C/D/ E/F/G/A/ |
[V:4]B,2 A,G, F,/G,/A,/B,/ C/D/E/F/ |
[V:1]e'4 d'4- |
[V:2]c'8 |
[V:3]A8 |
[V:4]F4 ^F4 |
[V:1]d'4 _d'4 |
[V:2]b4 g4 |
[V:3]B8 |
[V:4]G4 =E4 |
[V:1]c'4 b4 |
[V:2]e4 d4 |
[V:3]A4 B4 |
[V:4]F4 G4 |
[V:1]_a6 ^f2 |
[V:2]B8- |
[V:3]F6 B2 |
[V:4]D8 |
[V:1]g^f gb =Bc eg |
[V:2]B2 z6 |
[V:3]E2 z6 |
[V:4]E2 z6 |
[V:1]F4 c4 |
[V:2]D/^C/D/C/ DB zE EE |
[V:3]B,/A,/B,/A,/ B,D zA, A,A, |
[V:4]F,2 z2 F,,2 z2 |
[V:1]B2 z2 e4 |
[V:2]D2 z2 A4 |
[V:3]B,2 z2 c4 |
[V:4]B,/A,/B,/A,/ B,2 zF, F,B, |
[V:1]d4 a4 |
[V:2]B4 e4 |
[V:3]B4 c4 |
[V:4]B,/A,/B,/A,/ B,2 zF, F,B, |
[V:1]b4 e4 |
[V:2]d4 A4 |
[V:3]B4 c4 |
[V:4]B,/A,/B,/A,/ B,2 zF, F,B, |
[V:1]d4 A4 |
[V:2]B4 E4 |
[V:3]B4 C4 |
[V:4]B,/A,/B,/A,/ B,2 zF,, F,,B,, |
[V:1]B2 z4 zF |
[V:2]D2 z4 zD |
[V:3]B,2 z4 zz |
[V:4]B,,/A,,/B,,/A,,/ B,,2 z3 z |
[V:1]f2 ed c4 |
[V:2]d2 cB A4 |
[V:3]z4 zC CF |
[V:4]z8 |
[V:1]d4 e4 |
[V:2]B4 A4 |
[V:3]F/=E/F/E/ F2 zC CF |
[V:4]z8 |
[V:1]d4 =e4 |
[V:2]B4 G4 |
[V:3]F/=E/F/E/ F2 zC CF |
[V:4]z8 |
[V:1]f4 b4 |
[V:2]A4 =e4 |
[V:3]F/=E/F/E/ F2 zC CF |
[V:4]z8 |
[V:1]a2 z4 zF |
[V:2]f2 z4 zF |
[V:3]F/=E/F/E/ F2 z4 |
[V:4]z8 |
[V:1]_ag fe d2 z2 |
[V:2]fe dc =B2 z2 |
[V:3]z7 G, |
[V:4]z7 G, |
[V:1]z2 >G2 _a2 gf |
[V:2]z2 >G2 f2 ed |
[V:3]G2 FE D2 zG, |
[V:4]E2 DC =B,2 zG, |
[V:1]e2 zG _a2 gf |
[V:2]c2 zG f2 ed |
[V:3]G2 FE D2 zG, |
[V:4]E2 DC =B,2 zG, |
[V:1]e2 zE f2 e_d |
[V:2]c2 zE _d2 cB |
[V:3]E2 _DC B,2 zE, |
[V:4]C2 B,_A, G,2 zE, |
[V:1]c2 zC _d2 cB |
[V:2]_A2 zC B2 AG |
[V:3]C2 B,_A, G,2 zC, |
[V:4]_A,2 G,F, =E,2 zC, |
[V:1]_A2 zA _a2 fd |
[V:2]F2 zF c2 _A2 |
[V:3]_A,2 G,A, F,2 D2 |
[V:4]F,2 =E,F, F,,4 |
[V:1]=B4 d4 |
[V:2]G/^F/G/F/ Gz G/F/G/F/ Gz |
[V:3]D4 =B,4 |
[V:4]G,,G,, G,,G,, F,F, F,F, |
[V:1]c4 f4 |
[V:2]G/^F/G/F/ Gz G/F/G/F/ Gz |
[V:3]C4 D4 |
[V:4]E,E, E,E, =B,,B,, B,,B,, |
[V:1]e8 |
[V:2]G/^F/G/F/ Gz _A/G/A/G/ Az |
[V:3]E8 |
[V:4]C,C, C,C, C,C, C,C, |
[V:1]_af dB _AF DB, |
[V:2][B,8-_A8] |
[V:3]F8- |
[V:4]D,8 |
[V:1]_A,2 z6 |
[V:2][B,2A2] z4 zB, |
[V:3]F2 z6 |
[V:4]D,2 z6 |
[V:1]z4 zF FB |
[V:2]G2 FE D4 |
[V:3]z4 B,4 |
[V:4]zE, F,G, _A,4 |
[V:1]B/A/B/A/ B2 zF FB |
[V:2]E4 D4 |
[V:3]B,2 >E,2 B,4- |
[V:4]G,4 _A,4 |
[V:1]B/A/B/A/ B/e/E/e/ Ee ee |
[V:2]E2 z6 |
[V:3]B,2 z6 |
[V:4]G,2 z6 |
[V:1]B/A/B/A/ B/_d/=E/d/ Ed dd |
[V:2]=E2 z6 |
[V:3]_D2 z6 |
[V:4]G,2 z6 |
[V:1]c/=B/c/B/ c/f/F/f/ Ff ff |
[V:2]F2 z6 |
[V:3]F2 z6 |
[V:4]_A,2 z6 |
[V:1]c/=B/c/B/ c/e/^F/e/ Fe ee |
[V:2]^F2 z6 |
[V:3]E2 z6 |
[V:4]A,2 z6 |
[V:1]d/^c/d/c/ d/g/G/g/ Gg gg |
[V:2]G2 z6 |
[V:3]G2 z6 |
[V:4]B,2 z6 |
[V:1]d/^c/d/c/ d/f/G/f/ Gf ff |
[V:2]G2 z6 |
[V:3]G2 z6 |
[V:4]=B,2 z6 |
[V:1]e8- |
[V:2]c8- |
[V:3]G8 |
[V:4]C/=B,/C/B,/ CC, E,G, CG, |
[V:1]e8 |
[V:2]c8- |
[V:3]_A8 |
[V:4]_A,_A,, C,E, A,C A,,G,, |
[V:1]d8- |
[V:2]c8- |
[V:3]A8- |
[V:4]^F,,A,, C,D, ^F,A, CD |
[V:1]d2 z6 |
[V:2]c2 z4 zD |
[V:3]A2 z6 |
[V:4]^F2 z6 |
[V:1]z4 zA Ad |
[V:2]B2 AG ^F4 |
[V:3]z4 D4 |
[V:4]zG, A,B, C4 |
[V:1]d/^c/d/c/ dG ^FG AB |
[V:2]G2 z6 |
[V:3]G,2 >D2 CB, A,G, |
[V:4]B,2 >B,2 A,G, ^F,=E, |
[V:1]dc aG ^FG AB |
[V:2]z8 |
[V:3]^F,2 z6 |
[V:4]D,2 z6 |
[V:1]dc c'2 z4 |
[V:2]z2 a2 z3 D |
[V:3]z8 |
[V:4]z8 |
[V:1]z4 zA Ad |
[V:2]B2 AG ^F4 |
[V:3]z4 D4 |
[V:4]zG, A,B, C4 |
[V:1]d/^c/d/c/ d2 zA Ad |
[V:2]G4 ^F4 |
[V:3]D2 >G,2 D4 |
[V:4]B,4 C4 |
[V:1]d/^c/d/c/ d2 zd dg |
[V:2]G4 F4 |
[V:3]D2 >G2 G4 |
[V:4]B,4 =B,4 |
[V:1]g/^f/g/f/ g2 zd dg |
[V:2]E4 F4 |
[V:3]G2 >C2 G4 |
[V:4]C4 =B,4 |
[V:1]g/^f/g/f/ gz4 B |
[V:2]E2 z4 zB |
[V:3]G2 z4 zB |
[V:4]C2 z4 zB, |
[V:1]e2 BG E2 _D2 |
[V:2]e2 BG E2 _D2 |
[V:3]e2 BG E2 _D2 |
[V:4]E2 B,G, E,2 _D,2 |
[V:1]_C4 E4 |
[V:2]_C4 A,4 |
[V:3]_C4 _G,2 F,E, |
[V:4]_C,8 |
[V:1]D4 F4 |
[V:2]B,4 D/^C/D/C/ D2 |
[V:3]F,/=E,/F,/E,/ F,2 _A,4 |
[V:4]B,,4 =B,,4 |
[V:1]E4 G4 |
[V:2]C4 =E/^D/E/D/ E2 |
[V:3]G,/^F,/G,/F,/ G,2 B,4 |
[V:4]C,4 ^C,4 |
[V:1]^F4 A4 |
[V:2]D4 ^F/=E/F/E/ F2 |
[V:3]A,/^G,/A,/G,/ A,2 C4 |
[V:4]D,6 z2 |
[V:1]c/=B/c/B/ c/e/E/e/ Ea ^fe |
[V:2][^F2A2] z6 |
[V:3]E2 z6 |
[V:4]C,2 z6 |
[V:1]c/=B/c/B/ c/e/E/e/ Ec' a^f |
[V:2][^F2A2] z6 |
[V:3]E2 z6 |
[V:4]C,2 z6 |
[V:1]e4- ed cB |
[V:2]^F4- F2 z2 |
[V:3]A,4- A,2 z2 |
[V:4]C,4- C,2 z2 |
[V:1]Ac e^f ab c'd' |
[V:2]z8 |
[V:3]z8 |
[V:4]z8 |
[V:1]e'a c'^f ae dc |
[V:2]z6 D2 |
[V:3]z6 D2 |
[V:4]z6 ^F,2 |
[V:1]B^f gB Ae d^F |
[V:2]D2 z2 >c2 BC |
[V:3]G,2 z4 zD |
[V:4]G,2 z4 zD, |
[V:1]G2 zD e2 dc |
[V:2]B,2 zD c2 BA |
[V:3]d2 cB A2 zD |
[V:4]B,2 A,G, ^F,2 zD, |
[V:1]B2 zD e2 dc |
[V:2]G2 zD c2 BA |
[V:3]d2 cB A2 zD, |
[V:4]B,2 A,G, ^F,2 zD, |
[V:1]B/c/d/=e/ ^f/g/a/b/ c'4- |
[V:2]G/A/B/c/ d/=e/^f/g/ a4- |
[V:3]B,2 A,G, ^F,/G,/A,/B,/ C/D/E/^F/ |
[V:4]G,2 ^F,=E, D,/E,/F,/G,/ A,/B,/C/D/ |
[V:1]c'4 b4 |
[V:2]a4 g4 |
[V:3]^F4 G4 |
[V:4]D4 E4 |
[V:1]_a4 g4 |
[V:2]e4 =e4 |
[V:3]_A4 B4 |
[V:4]C4 ^C4 |
[V:1]z^f ga bg dB |
[V:2]D2 z6 |
[V:3]D2 z6 |
[V:4]D2 z6 |
[V:1]D4 A4 |
[V:2]B,/A,/B,/A,/ B,G z^F FF |
[V:3]G,/^F,/G,/F,/ G,2 zC CC |
[V:4]D,2 z2 D,,2 z2 |
[V:1]G2 z2 c4 |
[V:2]G2 z2 ^F4 |
[V:3]B,2 z2 A4 |
[V:4]G,/^F,/G,/F,/ G,2 zD, D,G, |
[V:1]B4 ^f4 |
[V:2]G4 c4 |
[V:3]G4 A4 |
[V:4]G,/^F,/G,/F,/ G,2 zD, D,G, |
[V:1]g4 =B4 |
[V:2]B4 F4 |
[V:3]B4 D4 |
[V:4]G,/^F,/G,/F,/ G,2 zD, D,G, |
[V:1]c4 ^F4 |
[V:2]E4 C4 |
[V:3]G4 E4 |
[V:4]G,/^F,/G,/F,/ G,2 zD, D,G, |
[V:1]G4 F4 |
[V:2]B,4 D4 |
[V:3]D4 =B,4 |
[V:4]G,/^F,/G,/F,/ G,2 zD,, D,,G,, |
[V:1]E4 C4 |
[V:2]C4 A,4 |
[V:3]C4 ^F,4 |
[V:4]G,,/^F,,/G,,/F,,/ G,,2 zD,, D,,G,, |
[V:1]=B,2 z6 |]
[V:2]G,2 z6 |]
[V:3]G,2 z6 |]
[V:4]G,,/^F,,/G,,/F,,/ G,,2 z4 |]

